X: 1730
T: THE MAN FROM NEWRY
M:2/4
L:1/16
B:O'NEILL'S 1730
N:"collected by J. O'Neill"
Z:Transcribed by A.LEE WORMAN
K:G
D2|G2g2 gdBG|c2e2 efge|dBdg edcB|ABcA GFED|
G2g2 gdBG|c2e2 efge|dBdg ecAF|G2B2 G2:|
|:(dc)|BGBG BcdB|ecec efge|dBdg edcB|ABcA GFED|
BGBG BcdB|ecec efge|dBdg ecAF|G2B2 G2:|


